assets/logo_circle.svg

<svg width="1088" height="1088" viewBox="0 0 1088 1088" fill="none" xmlns="http://www.w3.org/2000/svg">
<circle cx="544" cy="544" r="544" fill="url(#paint0_linear_1_33)"/>
<path d="M703.015 569.836C704.763 568.097 707.437 564.143 708.057 563.208C709.073 561.846 710.14 560.494 711.228 559.132C715.05 554.283 719.401 548.794 722.125 541.953C722.674 540.316 723.375 538.456 724.036 536.707C725.795 532.072 726.567 529.948 726.567 528.128V499.157C726.567 493.465 723.152 488.393 720.133 483.92L719.563 483.147C718.12 480.281 715.192 476.662 713.912 475.147C707.457 459.747 686.801 453.851 679.92 451.9C676.961 451.056 674.014 451.778 671.615 451.89C670.08 451.961 668.687 452.022 667.386 452.022H658.237C655.249 452.022 647.788 451.717 647.777 451.707C647.32 451.696 646.964 451.717 646.568 451.808L642.624 452.53C635.996 453.709 629.145 454.929 623.93 458.944C622.232 459.798 620.525 460.926 618.827 462.085C617.485 462.99 616.144 463.915 614.802 464.586C613.409 465.277 612.423 466.558 612.098 468.042C611.783 468.489 611.091 469.252 610.421 469.882C608.926 471.376 605.917 474.283 605.846 474.334C604.677 475.503 604.017 476.855 603.437 478.268C602.045 479.173 601.089 480.698 601.089 482.436C600.774 483.066 600.367 483.879 600.083 484.855C598.842 486.664 597.887 488.962 597.328 490.517C596.687 491.371 596.281 492.265 596.088 493.262C595.508 494.095 595.203 495.102 595.203 496.128C595.203 498.365 595.102 499.635 595 500.337C594.532 500.845 594.167 501.455 593.943 502.146C591.991 508.021 593.628 514.812 595.275 521.399C595.407 522.547 595.712 524.326 596.067 526.095C596.362 527.579 596.687 529.043 596.728 529.683C596.728 531.269 597.247 532.834 597.755 534.339C597.958 534.959 598.192 535.559 598.253 535.782C598.253 537.775 599.158 540.164 599.91 541.79C600.255 543.793 601.16 545.805 601.496 546.334C603.427 553.104 609.282 569.754 621.623 577.968L624.57 580.194C628.281 582.989 635.081 584.636 635.081 587.025C635.081 587.858 635.081 588.682 635.081 589.515C635.081 589.515 635.081 605.891 635.081 605.901C635.081 637.352 628.891 665.754 615.412 695.771C612.738 703.771 608.276 717.159 601.872 722.272C597.531 725.535 587.915 730.15 583.737 732.051C582.456 732.173 581.206 732.234 580.007 732.234C552.601 732.234 545.221 699.827 541.349 665.357C541.349 657.622 541.349 649.632 539.824 642.486C539.824 636.763 538.736 629.83 530.919 627.269C528.032 625.825 523.621 626.018 520.541 626.547C518.426 625.49 516.22 624.941 513.954 624.941C504.073 624.941 496.246 635.208 494.599 645.535C494.599 652.478 495.738 659.146 497.059 666.872L497.649 669.942C497.649 672.747 498.584 678.033 499.062 680.503C497.638 686.755 497.689 691.838 499.224 698.181C499.417 700.163 500.18 703.487 500.739 705.581C502.426 720.778 508.983 736.391 518.314 747.492C519.737 750.206 523.153 755.725 528.896 759.568C529.455 759.934 530.065 760.198 530.716 760.32C531.204 760.635 532.068 761.347 532.566 761.824C543.991 774.195 555.6 779.715 570.217 779.715C578.97 779.715 588.261 777.702 597.379 775.405C600.774 774.267 604.504 773.575 608.449 772.843C614.598 771.705 620.952 770.526 627.559 767.181C638.486 759.893 646.425 745.957 649.109 736.249C652.047 730.374 654.751 719.06 655.472 715.939C665.363 696.869 667.488 672.646 670.639 651.695C673.15 635.035 667.213 601.968 679.482 590.095C686.7 583.071 695.513 577.307 703.015 569.836ZM678.252 501.699C682.085 507.615 683.406 515.869 682.115 522.08C679.167 536.23 655.981 538.141 645.358 531.676C641.353 529.256 640.621 526.939 640.428 525.404C638.273 508.804 647.635 494.969 664.885 494.207C670.812 493.933 675.284 497.114 678.252 501.699ZM716.402 527.782C716.402 526.186 716.402 523.564 716.402 523.564V522.039C716.402 514.415 716.402 509.841 716.402 503.742C716.402 502.217 716.402 499.178 716.402 499.168L716.433 527.691C716.433 527.711 716.402 527.752 716.402 527.782Z" fill="black"/>
<path d="M728.163 640.718C725.053 637.516 720.885 635.828 716.087 635.828C715.487 635.828 714.867 635.849 714.654 635.889C696.519 635.889 694.395 650.751 692.87 661.485C690.979 672.819 690.786 684.652 690.603 696.108C690.481 703.843 690.359 711.142 689.749 718.735C689.749 728.9 688.519 744.067 687.635 747.818C687.188 748.458 686.872 749.22 686.75 750.044C686.364 752.768 686.069 755.492 685.775 758.217C684.931 766.054 684.138 773.464 681.007 780.773C680.733 781.403 680.59 782.095 680.59 782.776C680.59 784.941 678.252 789.434 677.124 790.633C675.681 791.558 674.654 793.215 674.491 794.943C674.451 795.462 673.648 796.753 672.621 797.82C670.801 800.005 668.982 802.272 667.132 804.57C661.399 811.716 655.462 819.116 648.53 824.92C644.901 828.549 636.799 834.496 634.522 836.143L622.253 840.28C573.724 848.961 533.054 843.543 500.729 824.148C496.978 821.901 493.328 820.01 489.821 818.201C479.423 812.834 471.209 808.595 466.106 797.373C457.019 778.059 456.581 759.162 456.114 739.157C455.982 733.383 455.85 727.508 455.514 721.764C455.514 713.104 454.63 704.839 453.766 696.829C452.932 688.748 452.109 681.104 452.109 672.982V582.715C458.218 581.455 460.607 579.961 463.86 577.704L466.269 575.935C469.125 573.079 473.506 568.881 473.486 568.83C485.166 560.474 497.638 547.016 497.638 534.238C497.638 533.313 498.726 531.432 499.6 529.918C501.166 527.214 502.934 524.164 502.934 520.505V514.406C502.934 510.553 501.013 507.717 499.458 505.44C498.614 504.21 497.75 502.929 497.75 502.208C497.75 501.364 497.75 498.945 494.009 495.112C492.475 487.326 488.815 477.273 480.165 469.933C478.436 467.026 475.824 464.515 474.025 462.797L473.222 462.035C471.626 460.429 469.156 459.046 467.804 458.365C466.411 457.003 465.069 455.753 464.714 455.448C458.858 451.057 451.885 446.33 444.912 444.592C439.911 442.925 432.002 441.939 431.047 441.857L424.175 441.837C416.927 441.837 409.812 442.193 402.3 446.706C397.837 449.684 392.582 455.682 390.966 457.562C373.034 470.472 353.446 489.745 358.935 524.53C360.795 535.702 364.455 544.708 370.127 552.057C371.276 554.944 373.36 558.167 375.21 561.033C376.084 562.395 376.897 563.575 377.283 564.357C377.375 564.754 377.507 565.13 377.69 565.496C381.441 572.998 391.901 580.022 398.935 581.76C400.358 582.228 402.188 582.705 404.068 583.142C404.272 587.747 404.78 592.342 405.237 596.51C405.695 600.677 406.122 604.459 406.122 607.417C406.122 616.616 406.122 626.131 407.647 635.025C408.114 649.47 408.002 664.382 407.891 678.796C407.657 711.803 407.403 745.927 413.837 779.187L414.671 783.406C419.174 806.176 424.277 831.995 441.07 850.323C476.109 886.948 527.453 890.008 572.82 890.008C581.734 890.008 589.897 888.798 598.527 887.507C603.59 886.755 608.825 885.972 614.497 885.403C614.873 885.372 615.249 885.291 615.605 885.179C619.528 883.858 629.002 880.33 631.777 879.293C635.366 879.06 639.727 877.637 644.016 876.214C646.751 875.848 649.922 874.16 651.986 872.371C679.574 858.384 703.503 833.215 717.957 802.587C721.007 793.439 724.158 783.965 725.815 773.617C725.815 767.904 727.279 754.679 727.258 754.679C732.656 724.102 734.964 700.59 734.964 676.031C734.964 675.076 734.994 673.917 735.035 672.606C735.33 663.61 735.777 648.565 728.163 640.718ZM445.471 494.055C452.17 502.421 451.184 519.824 448.307 528.403C446.447 533.964 441.354 536.769 433.181 536.769C429.725 536.769 425.852 536.2 422.305 535.173C416.734 533.547 413.725 531.727 411.906 528.932C405.644 519.224 405.553 507.768 411.255 497.684C416.439 488.515 434.543 485.344 443.092 491.738C443.987 492.398 444.77 493.181 445.471 494.055ZM441.944 578.456C441.944 578.446 441.944 578.446 441.944 578.456ZM430.427 451.982C430.488 451.992 430.63 452.012 430.711 452.022C430.315 452.022 429.929 452.022 429.532 452.022L430.427 451.982Z" fill="black"/>
<path d="M379.337 398.524C387.387 396.969 395.702 393.533 402.564 391.917C411.184 389.883 418.564 389.314 426.828 392.343C432.622 394.468 445.908 396.877 450.025 401.777C450.696 402.58 451.621 403.19 452.688 403.454L455.819 404.287C460.261 405.528 464.205 406.351 468.495 405.101C472.297 404.887 475.631 403.261 476.027 403.068C476.505 402.824 476.688 402.712 477.074 402.336C477.298 402.214 477.938 402.102 478.325 402.092C479.748 402.092 481.11 401.492 482.076 400.445C488.327 393.624 490.919 386.6 489.801 379.546C488.114 368.953 478.325 360.984 469.359 355.383C471.412 350.534 471.524 344.496 471.341 340.796C474.045 337.248 475.621 332.613 475.773 327.652C476.942 323.505 477.227 317.528 477.288 314.682C478.375 312.567 478.721 310.036 478.802 308.125L480.215 304.801C484.18 295.388 488.276 285.65 494.121 278.606C495.819 276.908 497.11 275.211 498.38 273.513C499.275 272.324 500.149 271.134 501.277 269.935C504.866 267.77 509.857 262.87 510.894 261.823L511.93 260.786C522.268 254.911 534.05 249.035 544.235 244.674C548.545 243.231 552.642 241.869 555.834 240.395C558.548 240.181 561.506 239.358 562.959 238.921C582.009 239.236 601.272 251.556 610.746 268.989C612.657 274.743 615.076 279.785 617.424 284.644C618.898 287.714 620.331 290.682 621.419 293.376C622.822 297.574 626.197 303.541 627.498 305.777C630.507 322.224 633.495 337.218 636.402 351.246C636.402 354.336 636.494 356.948 636.687 359.378C635.366 359.347 634.044 359.327 632.733 359.327C616.53 359.327 605.633 362.336 597.785 369.543C592.286 376.872 589.999 388.643 596.728 397.517C599.92 400.73 605.673 402.458 608.54 403.169C611.528 405.782 615.696 408.201 619.701 408.841C621.785 410.254 624.113 410.956 624.916 411.169C625.322 411.301 625.77 411.362 626.217 411.362H627.742C633.312 411.362 639.198 410.336 644.89 409.35C653.744 407.805 662.781 406.483 668.819 408.75C672.6 410.01 675.162 411.505 680.356 414.92C682.593 416.028 686.405 417.644 688.458 418.498C692.483 423.764 699.264 426.854 706.969 426.854C717.683 426.854 729.159 420.542 730.359 408.526C732.117 392.75 718.161 383.612 708.92 377.553L697.769 371.596C693.683 368.669 688.621 366.402 682.379 364.735C681.098 346.285 679.299 327.886 673.902 307.749C672.448 299.038 666.074 281.96 664.722 278.402C664.499 276.989 663.879 275.851 663.299 275.017C663.299 274.225 663.116 273.452 662.761 272.74L653.287 253.894C650.532 249.767 645.561 243.455 644.209 241.757C636.23 226.001 624.967 213.193 610.695 203.678C610.004 203.221 609.241 202.845 608.093 202.337C607.361 201.778 606.466 201.422 605.49 201.33C605.124 201.259 604.748 201.249 604.423 201.239C600.703 199.562 596.596 197.895 592.672 197.895H589.45C588.586 197.895 587.711 197.701 586.807 197.549C585.262 197.264 583.686 197 582.07 197C581.267 197 580.464 197.061 580.474 197.132C577.465 197.132 573.186 197.447 570.055 197.681C568.499 197.793 567.269 197.895 566.751 197.895H554.553C530.99 197.895 513.354 208.314 494.68 219.353C489.15 222.626 483.468 225.981 477.562 229.112C475.163 230.311 469.135 233.798 465.567 239.317C465.008 239.877 464.266 240.771 463.473 241.757C462.904 242.458 461.918 243.688 461.328 244.278C460.81 244.471 460.332 244.735 459.895 245.081C453.166 250.458 449.649 256.781 446.254 262.911C445.349 264.527 444.444 266.164 443.753 267.363L441.74 270.037C424.846 292.562 418.523 300.989 406.284 330.194C405.918 331.647 405.39 333.284 404.81 335.043C403.55 338.895 402.056 343.469 401.598 348.135C391.819 349.985 382.874 352.455 374.356 355.647C373.99 355.779 373.644 355.952 373.319 356.176C372.048 357.03 369.832 357.894 367.697 358.727C363.113 360.527 357.919 362.57 355.133 366.737C350.956 372.989 350.956 384.394 355.133 390.676C361.1 399.591 370.046 400.313 379.337 398.524ZM589.44 208.06C588.413 208.06 587.366 207.887 586.309 207.694C587.356 207.867 588.413 208.06 589.44 208.06ZM582.07 207.165C582.192 207.165 582.304 207.206 582.415 207.206C581.775 207.185 581.135 207.185 580.474 207.287C580.372 207.287 580.25 207.297 580.149 207.297C580.25 207.297 580.382 207.287 580.474 207.287C580.748 207.297 581.785 207.216 582.07 207.165ZM575.137 207.511C575.381 207.49 575.584 207.48 575.828 207.47C575.595 207.48 575.361 207.501 575.137 207.511ZM546.533 208.558C549.135 208.253 551.798 208.06 554.563 208.06C551.778 208.06 549.155 208.304 546.533 208.558Z" fill="black"/>
<defs>
<linearGradient id="paint0_linear_1_33" x1="544" y1="0" x2="544" y2="1088" gradientUnits="userSpaceOnUse">
<stop stop-color="#FFD268"/>
<stop offset="1" stop-color="#F6BD41"/>
</linearGradient>
</defs>
</svg>

<?xml version="1.0" encoding="UTF-8"?>
<svg id="Layer_1" xmlns="http://www.w3.org/2000/svg" xmlns:xlink="http://www.w3.org/1999/xlink" version="1.1" viewBox="0 0 1088 1088">
  <!-- Generator: Adobe Illustrator 30.1.0, SVG Export Plug-In . SVG Version: 2.1.1 Build 136)  -->
  <defs>
    <style>
      .st0 {
        fill: #e0e0e0;
      }

      .st1 {
        fill: #e3e3e3;
        stroke: #999;
        stroke-miterlimit: 10;
        stroke-width: 12px;
      }

      .st2 {
        fill: url(#linear-gradient);
      }

      .st3 {
        fill: #262626;
      }

      .st4 {
        fill: #ececec;
      }
    </style>
    <linearGradient id="linear-gradient" x1="544" y1="1085.89" x2="544" y2="-2.11" gradientTransform="translate(0 1085.89) scale(1 -1)" gradientUnits="userSpaceOnUse">
      <stop offset="0" stop-color="#ffd268"/>
      <stop offset="1" stop-color="#f6bd41"/>
    </linearGradient>
  </defs>
  <circle class="st2" cx="544" cy="544" r="544"/>
  <path d="M635.08,587.03v18.88c0,31.45-6.19,59.85-19.67,89.87-2.67,8-7.14,21.39-13.54,26.5-4.34,3.26-13.96,7.88-18.14,9.78-1.28.12-2.53.18-3.73.18-27.41,0-34.79-32.41-38.66-66.88,0-7.73,0-15.72-1.53-22.87,0-5.72-1.09-12.66-8.9-15.22-2.89-1.44-7.3-1.25-10.38-.72-2.11-1.06-4.32-1.61-6.59-1.61-9.88,0-17.71,10.27-19.35,20.59,0,6.94,1.14,13.61,2.46,21.34l.59,3.07c0,2.8.94,8.09,1.41,10.56-1.42,6.25-1.37,11.34.16,17.68.19,1.98.96,5.31,1.52,7.4,1.69,15.2,8.24,30.81,17.58,41.91,1.42,2.71,4.84,8.23,10.58,12.08.56.37,1.17.63,1.82.75.49.32,1.35,1.03,1.85,1.5,11.43,12.37,23.03,17.89,37.65,17.89,8.75,0,18.04-2.01,27.16-4.31,3.39-1.14,7.12-1.83,11.07-2.56,6.15-1.14,12.5-2.32,19.11-5.66,10.93-7.29,18.87-21.22,21.55-30.93,2.94-5.88,5.64-17.19,6.36-20.31,9.89-19.07,12.02-43.29,15.17-64.24,2.51-16.66-3.43-49.73,8.84-61.6"/>
  <path d="M398.93,581.76c1.42.47,3.25.95,5.13,1.38M404.07,583.14c.2,4.6.71,9.2,1.17,13.37.46,4.17.89,7.95.89,10.91,0,9.2,0,18.71,1.52,27.61.47,14.44.36,29.36.24,43.77-.23,33.01-.49,67.13,5.95,100.39l.83,4.22c4.5,22.77,9.61,48.59,26.4,66.92,35.04,36.62,86.38,39.68,131.75,39.68,8.91,0,17.08-1.21,25.71-2.5,5.06-.75,10.3-1.54,15.97-2.1.38-.03.75-.11,1.11-.22,3.92-1.32,13.4-4.85,16.17-5.89,3.59-.23,7.95-1.66,12.24-3.08,2.73-.37,5.91-2.05,7.97-3.84,27.59-13.99,51.52-39.16,65.97-69.78,3.05-9.15,6.2-18.62,7.86-28.97,0-5.71,1.46-18.94,1.44-18.94,5.4-30.58,7.71-54.09,7.71-78.65,0-.96.03-2.11.07-3.42.3-9,.74-24.04-6.87-31.89-3.11-3.2-7.28-4.89-12.08-4.89-.6,0-1.22.02-1.43.06-18.14,0-20.26,14.86-21.78,25.6-1.89,11.33-2.08,23.17-2.27,34.62-.12,7.74-.24,15.03-.85,22.63,0,10.17-1.23,25.33-2.11,29.08-.45.64-.76,1.4-.89,2.23-.39,2.72-.68,5.45-.97,8.17-.84,7.84-1.64,15.25-4.77,22.56-.27.63-.42,1.32-.42,2,0,2.16-2.34,6.66-3.47,7.86-1.44.92-2.47,2.58-2.63,4.31-.04.52-.84,1.81-1.87,2.88-1.82,2.18-3.64,4.45-5.49,6.75-5.73,7.15-11.67,14.55-18.6,20.35-3.63,3.63-11.73,9.58-14.01,11.22l-12.27,4.14c-48.53,8.68-89.2,3.26-121.52-16.13-3.75-2.25-7.4-4.14-10.91-5.95-10.4-5.37-18.61-9.61-23.72-20.83-9.09-19.31-9.52-38.21-9.99-58.22-.13-5.77-.26-11.65-.6-17.39,0-8.66-.88-16.92-1.75-24.93-.83-8.08-1.66-15.72-1.66-23.85v-90.27M441.94,578.46s0-.01,0,0Z"/>
  <path d="M379.34,398.52c8.05-1.55,16.36-4.99,23.23-6.61,8.62-2.03,16-2.6,24.26.43,5.79,2.12,19.08,4.53,23.2,9.43.67.8,1.6,1.41,2.66,1.68l3.13.83c4.44,1.24,8.39,2.06,12.68.81,3.8-.21,7.14-1.84,7.53-2.03.48-.24.66-.36,1.05-.73.22-.12.86-.23,1.25-.24,1.42,0,2.78-.6,3.75-1.65,6.25-6.82,8.84-13.85,7.73-20.9-1.69-10.59-11.48-18.56-20.44-24.16,2.05-4.85,2.16-10.89,1.98-14.59,2.7-3.55,4.28-8.18,4.43-13.14,1.17-4.15,1.45-10.12,1.51-12.97,1.09-2.12,1.43-4.65,1.51-6.56l1.41-3.32c3.96-9.41,8.06-19.15,13.91-26.2,1.7-1.7,2.99-3.39,4.26-5.09.89-1.19,1.77-2.38,2.9-3.58,3.59-2.17,8.58-7.07,9.62-8.11l1.04-1.04c10.34-5.88,22.12-11.75,32.3-16.11,4.31-1.44,8.41-2.8,11.6-4.28,2.71-.21,5.67-1.04,7.12-1.47,19.05.31,38.31,12.63,47.79,30.07,1.91,5.75,4.33,10.8,6.68,15.65,1.47,3.07,2.91,6.04,3.99,8.73,1.4,4.2,4.78,10.16,6.08,12.4,3.01,16.45,6,31.44,8.9,45.47,0,3.09.09,5.7.29,8.13-1.32-.03-2.64-.05-3.95-.05-16.2,0-27.1,3.01-34.95,10.22-5.5,7.33-7.79,19.1-1.06,27.97,3.19,3.21,8.94,4.94,11.81,5.65,2.99,2.61,7.16,5.03,11.16,5.67,2.08,1.41,4.41,2.11,5.22,2.33.41.13.85.19,1.3.19h1.53c5.57,0,11.46-1.03,17.15-2.01,8.85-1.55,17.89-2.87,23.93-.6,3.78,1.26,6.34,2.76,11.54,6.17,2.24,1.11,6.05,2.72,8.1,3.58,4.02,5.27,10.81,8.36,18.51,8.36,10.71,0,22.19-6.31,23.39-18.33,1.76-15.78-12.2-24.91-21.44-30.97l-11.15-5.96c-4.09-2.93-9.15-5.19-15.39-6.86-1.28-18.45-3.08-36.85-8.48-56.99-1.45-8.71-7.83-25.79-9.18-29.35-.22-1.41-.84-2.55-1.42-3.39,0-.79-.18-1.57-.54-2.28l-9.47-18.85c-2.76-4.13-7.73-10.44-9.08-12.14-7.98-15.76-19.24-28.56-33.51-38.08-.69-.46-1.45-.83-2.6-1.34-.73-.56-1.63-.92-2.6-1.01-.37-.07-.74-.08-1.07-.09-3.72-1.68-7.83-3.34-11.75-3.34h-3.22c-.86,0-1.74-.19-2.64-.35-1.54-.28-3.12-.55-4.74-.55-.8,0-1.61.06-1.6.13-3.01,0-7.29.32-10.42.55-1.56.11-2.79.21-3.3.21h-12.2c-23.56,0-41.2,10.42-59.87,21.46-5.53,3.27-11.21,6.63-17.12,9.76-2.4,1.2-8.43,4.69-12,10.21-.56.56-1.3,1.45-2.09,2.44-.57.7-1.55,1.93-2.14,2.52-.52.19-1,.46-1.43.8-6.73,5.38-10.25,11.7-13.64,17.83-.9,1.62-1.81,3.25-2.5,4.45l-2.01,2.67c-16.89,22.53-23.22,30.95-35.46,60.16-.37,1.45-.89,3.09-1.47,4.85-1.26,3.85-2.75,8.43-3.21,13.09-9.78,1.85-18.72,4.32-27.24,7.51-.37.13-.71.3-1.04.53-1.27.85-3.49,1.72-5.62,2.55-4.58,1.8-9.78,3.84-12.56,8.01-4.18,6.25-4.18,17.66,0,23.94,5.97,8.92,14.91,9.64,24.2,7.85ZM589.44,208.06c-1.03,0-2.07-.17-3.13-.37,1.05.17,2.1.37,3.13.37ZM582.07,207.16c.12,0,.23.04.34.04-.64-.02-1.28-.02-1.94.08-.1,0-.22,0-.33,0,.1,0,.23,0,.33,0,.27,0,1.31-.07,1.6-.12ZM575.14,207.51c.24-.02.45-.03.69-.04-.23,0-.47.03-.69.04ZM546.53,208.56c2.6-.3,5.26-.5,8.03-.5-2.78,0-5.41.24-8.03.5Z"/>
  <g>
    <path class="st1" d="M728.31,449.08c83.44,72.61-29.85,199.21-113.35,128.09-78.77-77.86,25.08-200.18,113.35-128.09Z"/>
    <path d="M685.41,489.61c-27.17-22.44-68.79-6.91-75.2,27.57-6.48,33.88,26.05,63.12,59.04,53.16,35.49-10.56,45.18-57.12,16.31-80.6l-.15-.13Z"/>
    <path class="st4" d="M627.13,509.79c1.71,2.74,1.24,8.08-.54,10.92-2.62,4.91-8.13,3.84-9.21-1.28-.76-3.02,0-7.09,1.84-9.46,1.82-2.79,5.97-3.61,7.82-.35l.1.16Z"/>
    <path class="st1" d="M483.3,439.57c49.52,29.79,54.68,101.66,10.16,138.4-40.7,34.5-104.11,22.97-129.98-23.72-41.14-77.32,43.85-159.54,119.66-114.79l.17.1Z"/>
    <path d="M472.18,481.84c-45.36-17.7-85.29,34.92-55.53,73.75,22.77,29.24,69,22,82.18-12.46,9.46-23.65-2.88-51.79-26.46-61.21l-.18-.08Z"/>
    <path class="st0" d="M491.42,522.48c-8.3,4.78-13.06-11.1-4.85-13.74,7.34-2.33,10.27,9.92,4.99,13.64l-.14.1Z"/>
    <path class="st3" d="M472.23,481.89c-18.67,25.23-32.14,42.44-65.71,47.01-.95-16.37,6.56-32.08,19.89-41.62,13.33-9.54,30.63-11.57,45.81-5.39Z"/>
    <path class="st3" d="M702.03,532.87c-4.54-5.53-11.48-7.13-18.51-9.6-20-7.01-33.53-22.91-43.64-41.29,15.49-5.71,32.86-2.8,45.63,7.66,12.78,10.46,19.06,26.91,16.52,43.22Z"/>
  </g>
</svg>
